src/amo/components/Icon/img/permissions/notifications.svg

<svg xmlns="http://www.w3.org/2000/svg" xmlns:xlink="http://www.w3.org/1999/xlink" width="24" height="24" viewBox="0 0 24 24">
  <defs>
    <path id="notifications-a" d="M19.5,1.5 L15,1.5 C14.1715729,1.5 13.5,2.17157288 13.5,3 C13.5,3.82842712 14.1715729,4.5 15,4.5 L19.5,4.5 C20.3284271,4.5 21,5.17157288 21,6 L21,18 C21,18.8284271 20.3284271,19.5 19.5,19.5 L4.5,19.5 C3.67157288,19.5 3,18.8284271 3,18 L3,12 C3,11.1715729 2.32842712,10.5 1.5,10.5 C0.671572875,10.5 1.01453063e-16,11.1715729 0,12 L0,18 C3.04359188e-16,20.4852814 2.01471863,22.5 4.5,22.5 L19.5,22.5 C21.9852814,22.5 24,20.4852814 24,18 L24,6 C24,3.51471863 21.9852814,1.5 19.5,1.5 Z"/>
  </defs>
  <g fill="none" fill-rule="evenodd" transform="translate(0 1)">
    <use fill="#000" fill-rule="nonzero" transform="matrix(-1 0 0 1 24 0)" xlink:href="#notifications-a"/>
    <path fill="#0F1126" stroke="#0F1126" d="M17.25,10.5 C14.3505051,10.5 12,8.14949494 12,5.25 C12,2.35050506 14.3505051,5.32628579e-16 17.25,0 C20.1494949,-5.32628579e-16 22.5,2.35050506 22.5,5.25 C22.5,8.14949494 20.1494949,10.5 17.25,10.5 Z"/>
  </g>
</svg>

<svg xmlns="http://www.w3.org/2000/svg" xmlns:xlink="http://www.w3.org/1999/xlink" width="24" height="24"><defs><path id="a" d="M19.5 1.5H15a1.5 1.5 0 0 0 0 3h4.5A1.5 1.5 0 0 1 21 6v12a1.5 1.5 0 0 1-1.5 1.5h-15A1.5 1.5 0 0 1 3 18v-6a1.5 1.5 0 0 0-3 0v6a4.5 4.5 0 0 0 4.5 4.5h15A4.5 4.5 0 0 0 24 18V6a4.5 4.5 0 0 0-4.5-4.5Z"/></defs><g fill="none" fill-rule="evenodd" transform="translate(0 1)"><use fill="#000" fill-rule="nonzero" transform="matrix(-1 0 0 1 24 0)" xlink:href="#a"/><path fill="#0F1126" stroke="#0F1126" d="M17.25 10.5a5.25 5.25 0 1 1 0-10.5 5.25 5.25 0 0 1 0 10.5Z"/></g></svg>
